X: 1
T: Katie's Waltz
C: Domhnail Bernard
R: waltz
Z: 2016 John Chambers <jc:trillian.mit.edu>
S: printed handout at Boston RSCDS dance
M: 3/4
L: 1/8
K: D
"A"|:\
"D"A3BA2 | A2F2D2 | "G"D3B,D2 | "D"A,4 FG |\
"D"A3BA2 | "Bm"A2F2D2 | "G"E2F2G2 | "A"A4 Bc |
"Bm"d2B2d2 | "A"A2F2E2 | "G"E2F2E2 | "Bb"_B6 |\
"D"A2d2f2 | "Bb"_B2e2g2 | "A"A2f2e2 | "D"d6 :|
"B"|:\
"D"A2d2f2 | "Bb"=f4d2 | "D"f2d2A2 | "Bm"B4A2 |\
"G"G2B2d2 | "A"c4e2 | "D"A6- | A6 |
"D"A2d2f2 | "Bb"=f4d2 | "D"f2d2A2 | "Bm"F2G2A2 |\
"A"A2d2f2 | "Bb"=f4"A"e2 | "D"d6- | d6 :|
